X:318
T:Invercauld 
C:Joe Buchanan's Scottish Tome - Page 094.2
I:094 2
R:March
Z:Carl Allison
L:1/8
M:2/4
K:D treble
(d/B/) | "D"A{c}d {fg}f(e/d/) | "D"fa {fg}fe/d/ |"D" A{c}d "Bm"{fg}fe/d/ |"E7"{c}Be "A7"e(d/B/) |
|"D" A{c}d fe/d/ | "D"fa {fg}"D7" fe/d/ |"G" {c}Be "A7"{d}cB/A/ | "D"{c}d2 {d}d :|
(f/g/) |"D" ad {fg}"D7"f(e/d/) | "G"{f}e/d/c/B/ "A7"A(f/g/) | "D"ad "Bm"g/f/e/d/ |"E7"{/c}Be "A7"e(f/g/) |
| "D"ad "D7"{fg}fe/d/ |"G"{/f}e/d/c/B/ "A7"A{c}d  |"G" {c}Be "A7"{d}c(B/A/) |"D" {c}d2  {d}d (f/g/) |
| "D"ad "D7"{fg}fe/d/ |"G"{/f}e/d/c/B/ "A7"A(f/g/)  |"D" ad "Bm"g/f/e/d/ |"e7" {c}Be "A7"e(f/g/) |
| "G"B/>G/B/c/ {c}d(c/B/) |"D" A{c}d "Bm"{fg}fe/d/ |"E7" {c}Be "A7"{/d}c(B/A/) | "D"{/c}d2 {d}d |]

